X:991
T:Reel 991
M:4/4
K:Dmaj
L:1/8
AG|FDDF EDB,D|FDFA d2cd|FD (3DCD B,DA,F|| (3FGA Bc dBAG:||2 (3FGA Bc dBAF|DFAc dcBA|BABc dBAF|DFAc d2dA| (3Bcd AF E2 (3EFG |AcBA BcdB|AFDF A2Bc|dcdB AFdB|AFEF D2|
